resources/haticons/SVG/inbox.svg

<!-- Generated by IcoMoon.io -->
<svg version="1.1" xmlns="http://www.w3.org/2000/svg" width="24" height="24" viewBox="0 0 24 24">
<title>inbox</title>
<path d="M18.984 15v-9.984h-14.016v9.984h4.031q0 1.219 0.891 2.109t2.109 0.891 2.109-0.891 0.891-2.109h3.984zM18.984 3q0.844 0 1.43 0.586t0.586 1.43v13.969q0 0.797-0.609 1.406t-1.406 0.609h-14.016q-0.844 0-1.406-0.586t-0.563-1.43v-13.969q0-0.844 0.563-1.43t1.406-0.586h14.016z"></path>
</svg>

<svg xmlns="http://www.w3.org/2000/svg" width="24" height="24"><path d="M18.984 15V5.016H4.968V15h4.031q0 1.219.891 2.109t2.109.891 2.109-.891.891-2.109h3.984zm0-12q.844 0 1.43.586T21 5.016v13.969q0 .797-.609 1.406T18.985 21H4.969q-.844 0-1.406-.586T3 18.984V5.015q0-.844.563-1.43t1.406-.586h14.016z"/></svg>
